X:1
T:Petersen, 87.87
T:Petersen, 87.87
T:Halle, Germany, 1697
T:Public Domain Courtesy of the Cyber Hymnal™
C:Halle, Germany, 1697
Z:Public Domain
Z:Courtesy of the Cyber Hymnal™
%%score ( 1 2 ) ( 3 4 )
L:1/8
Q:1/4=125
M:3/4
K:F
V:1 treble 
V:2 treble 
V:3 bass 
V:4 bass 
V:1
 [Fc]4 [Cc]2 | B2 A2 G2 | A2 G2 [CF]2 | [EG]4 [EG]2 | A2 B2 [FA]2 | d2 c2 [FB]2 | A4 [FA]2 | %7
 [EG]6 | A2 G2 [A,F]2 | [DG]4 [CA]2 | B4 [DB]2 | [DA]4 [^CA]2 | d2 c2 B2 | c2 F2 [FG]2 | %14
 A2 G2 z F | F6 |] %16
V:2
 x6 | F4 G2 | F4 x2 | x6 | F4 x2 | D4 x2 | A2 G2 x2 | x6 | C4 x2 | x6 | B,2 C2 x2 | x6 | D4 DE | %13
 F4 x2 | F4 E2 | F6 |] %16
V:3
 [F,A,]4 [E,G,]2 | [D,F,]4 [E,C]2 | [F,C]4 [F,A,]2 | [C,C]4 [C,C]2 | [F,C]4 [F,C]2 | %5
 [B,,B,]4 [D,B,]2 | [F,C]4 [F,,F,C]2 | [C,C]6 | [A,,E,]4 [D,F,]2 | D,2 E,2 [A,,^F,]2 | %10
 [G,,G,]4 [G,,F,]2 | [A,,E,]4 [A,,E,]2 | [^F,,A,]4 [G,,G,]2 | F,2 C2 [B,,D]2 | [C,C]4 [C,C]2 | %15
 [F,,F,A,]6 |] %16
V:4
 x6 | x6 | x6 | x6 | x6 | x6 | x6 | x6 | x6 | B,,4 x2 | x6 | x6 | x6 | A,,4 x2 | x6 | x6 |] %16

